X:1
T:Gioia del Paradiso
T:Gioia del Paradiso
T:Tomaso Cecchino
T:Source : Canti Spirituali a uno, due et tre voci + BC---Venetia---G.Vincenti---1613. Editor : André Vierendeels (25/10/16).
T:Notes : Original clefs  C1, F4 Figures in BC are notated in original print 
T:©
T:©
C:Tomaso Cecchino
Z:©
%%score 1 2
L:1/8
Q:1/4=120
M:4/4
K:F
V:1 treble nm="Soprano" snm="S"
V:2 bass nm="BC"
V:1
 F6 EF | G3 A F4 | F4 z2 ^F2 | ^F3 G G3 A | A3 B/c/ A4 | z cBA G2 F2 | E4 D4 :: z2 D2 D4 | %8
w: Gio- ia del|Pa- re- d-|so, u'|so- ni va- ghi|fio- * * ri,|del tuo s- re- no|vi- so,|per- che|
 z2 D2 _E3 D | D4 D2 GG | ^F4 F3 G | G4 G4 :: G8 | A4 z2 c2 | BAGF E2 F2 | E4 D4 | z2 d2 cBAG | %17
w: can- gia- ti|l'ha- i, in si|me- sti pal-|lo- ri,|ahi,|ahi m'ac-|cor- go dal di- vin sem-|bian- te,|che sei de l'al- ma|
 A4 z2 d2 | B2 AG AB c2- | c2 A/G/F/ G4 z/ | G8 |] %21
w: mia ge-|lo- * * * * *|* so'a- * * man-|te.|
V:2
 D,8 | C,4 F,,4 | F,,4 D,4 | D,4 =B,,2 C,2 | F,4 F,4 | A,,2 B,,2 C,2 D,2 | A,,4 D,,4 :: %7
"^#" G,,4 D,4 |"^-natural" G,,4 C,4 |"^#" G,,4 G,,4 | D,8 | G,,4 G,,4 :: C,8 | F,,4 F,,4 | %14
 G,,4 A,,4 |"^#""^#" A,,4 D,4 | B,,4 C,4 | F,E,D,C, B,,4 | G,,4 F,,4 | C,8 | F,,8 |] %21

